;FLAVOR:RepRap
;TIME:5188
;Filament used: 5.771m
;Layer height: 0.2
;Generated with Cura_SteamEngine 0.0.0-master
M104 S200
M109 S200
;Sliced at: Sun 01-04-2018 09:39:31 
 ;Basic settings: Layer height: 0.2 Walls: 1.2 Fill: {fill_density} 
 ;Print time: 01:26:29 
 ;Filament used: [5.77]m [17.2123080078125]g 
 ;Filament cost: [0] 
 ;M190 S60 ;Uncomment to add your own bed temperature line 
 ;M109 S200 ;Uncomment to add your own temperature line 
 G21        ;metric values 
 G90        ;absolute positioning 
 M82        ;set extruder to absolute mode 
 M107       ;start with the fan off 
 G28 X0 Y0  ;move X/Y to min endstops 
 G28 Z0     ;move Z to min endstops 
 G1 Z15.0 F3000 ;move the platform down 15mm 
 G92 E0                  ;zero the extruded length 
 G1 F3000 E3              ;extrude 3mm of feed stock 
 G92 E0                  ;zero the extruded length again 
 G1 F3000 
 ;Put printing message on LCD screen 
 M117 Printing...
;LAYER_COUNT:110
;LAYER:0
M107
G0 F3600 X-14.266 Y27.46 Z0.299
;TYPE:SKIRT
G1 F1800 X-19.44 Y25.549 E0.27518
G1 X-26.577 Y23.256 E0.64917
G1 X-27.074 Y23.055 E0.67591
G1 X-27.652 Y22.697 E0.70983
G1 X-28.681 Y21.916 E0.77428
G1 X-29.083 Y21.56 E0.80107
G1 X-29.35 Y21.254 E0.82133
G1 X-30.157 Y20.213 E0.88705
G1 X-30.453 Y19.766 E0.9138
G1 X-30.632 Y19.399 E0.93417
G1 X-31.129 Y18.214 E0.99828
G1 X-31.299 Y17.706 E1.025
G1 X-31.384 Y17.249 E1.04819
G1 X-31.574 Y15.659 E1.12808
G1 X-31.599 Y15.231 E1.14947
G1 X-31.587 Y-15.535 E2.68439
G1 X-31.556 Y-16.004 E2.70784
G1 X-31.394 Y-17.233 E2.76969
G1 X-31.285 Y-17.758 E2.79644
G1 X-31.157 Y-18.126 E2.81588
G1 X-30.661 Y-19.339 E2.88126
G1 X-30.422 Y-19.818 E2.90797
G1 X-30.197 Y-20.152 E2.92806
G1 X-29.416 Y-21.181 E2.99251
G1 X-29.06 Y-21.583 E3.0193
G1 X-28.753 Y-21.85 E3.03959
G1 X-27.713 Y-22.656 E3.10524
G1 X-27.266 Y-22.953 E3.13201
G1 X-26.82 Y-23.163 E3.15661
G1 X-25.323 Y-23.749 E3.23681
G1 X-25.054 Y-23.843 E3.25103
G1 X-19.728 Y-25.455 E3.52865
G1 X-14.64 Y-27.317 E3.79895
G1 X-8.933 Y-29.791 E4.10928
G1 X-8.426 Y-29.967 E4.13605
G1 X-7.899 Y-30.066 E4.1628
G1 X-7.501 Y-30.088 E4.18269
G1 X7.496 Y-30.09 E4.93089
G1 X8.03 Y-30.05 E4.95761
G1 X8.553 Y-29.931 E4.98437
G1 X8.937 Y-29.789 E5.0048
G1 X14.325 Y-27.436 E5.29812
G1 X16.844 Y-26.463 E5.43284
G1 X22.007 Y-24.722 E5.70468
G1 X25.214 Y-23.802 E5.87113
G1 X25.582 Y-23.675 E5.89055
G1 X26.836 Y-23.163 E5.95813
G1 X27.316 Y-22.924 E5.98488
G1 X27.651 Y-22.698 E6.00504
G1 X28.68 Y-21.917 E6.06949
G1 X29.082 Y-21.561 E6.09628
G1 X29.348 Y-21.256 E6.11647
G1 X30.147 Y-20.226 E6.1815
G1 X30.444 Y-19.779 E6.20828
G1 X30.619 Y-19.421 E6.22816
G1 X31.125 Y-18.224 E6.29299
G1 X31.296 Y-17.716 E6.31973
G1 X31.386 Y-17.225 E6.34464
G1 X31.577 Y-15.53 E6.42974
G1 X31.6 Y-15.123 E6.45008
G1 X31.567 Y15.742 E7.98994
G1 X31.533 Y16.232 E8.01444
G1 X31.391 Y17.257 E8.06607
G1 X31.278 Y17.781 E8.09281
G1 X31.157 Y18.126 E8.11105
G1 X30.661 Y19.339 E8.17643
G1 X30.422 Y19.818 E8.20314
G1 X30.197 Y20.152 E8.22323
G1 X29.416 Y21.181 E8.28768
G1 X29.06 Y21.583 E8.31447
G1 X28.753 Y21.85 E8.33477
G1 X27.713 Y22.656 E8.40041
G1 X27.266 Y22.953 E8.42719
G1 X26.82 Y23.163 E8.45178
G1 X25.323 Y23.749 E8.53199
G1 X25.054 Y23.843 E8.5462
G1 X19.728 Y25.455 E8.82382
G1 X14.64 Y27.317 E9.09413
G1 X8.933 Y29.791 E9.40445
G1 X8.426 Y29.967 E9.43123
G1 X7.899 Y30.066 E9.45798
G1 X7.501 Y30.088 E9.47787
G1 X-7.492 Y30.09 E10.22587
G1 X-8.026 Y30.05 E10.25259
G1 X-8.549 Y29.931 E10.27934
G1 X-8.933 Y29.789 E10.29977
G1 X-14.266 Y27.46 E10.5901
G0 F3600 X-14.118 Y27.088
G1 F1800 X-19.299 Y25.175 E10.86564
G1 X-26.455 Y22.876 E11.24062
G1 X-26.922 Y22.683 E11.26583
G1 X-27.411 Y22.378 E11.29459
G1 X-28.44 Y21.597 E11.35904
G1 X-28.817 Y21.26 E11.38426
G1 X-29.034 Y21.009 E11.40082
G1 X-29.841 Y19.968 E11.46653
G1 X-30.118 Y19.545 E11.49176
G1 X-30.263 Y19.245 E11.50838
G1 X-30.76 Y18.06 E11.57249
G1 X-30.918 Y17.579 E11.59775
G1 X-30.986 Y17.202 E11.61686
G1 X-31.176 Y15.612 E11.69675
G1 X-31.199 Y15.231 E11.71579
G1 X-31.187 Y-15.535 E13.25072
G1 X-31.16 Y-15.952 E13.27156
G1 X-30.998 Y-17.181 E13.33341
G1 X-30.892 Y-17.676 E13.35866
G1 X-30.787 Y-17.974 E13.37443
G1 X-30.291 Y-19.187 E13.43981
G1 X-30.063 Y-19.639 E13.46507
G1 X-29.878 Y-19.911 E13.48148
G1 X-29.097 Y-20.94 E13.54593
G1 X-28.76 Y-21.317 E13.57115
G1 X-28.508 Y-21.534 E13.58775
G1 X-27.468 Y-22.34 E13.65339
G1 X-27.045 Y-22.617 E13.67861
G1 X-26.674 Y-22.791 E13.69906
G1 X-25.177 Y-23.377 E13.77926
G1 X-24.938 Y-23.46 E13.79188
G1 X-19.595 Y-25.077 E14.07039
G1 X-14.501 Y-26.941 E14.34101
G1 X-8.774 Y-29.424 E14.65243
G1 X-8.295 Y-29.588 E14.67769
G1 X-7.797 Y-29.674 E14.7029
G1 X-7.501 Y-29.688 E14.71768
G1 X7.496 Y-29.69 E15.46589
G1 X8 Y-29.65 E15.49111
G1 X8.491 Y-29.531 E15.51632
G1 X8.777 Y-29.423 E15.53157
G1 X14.181 Y-27.063 E15.82576
G1 X16.712 Y-26.085 E15.96114
G1 X21.876 Y-24.345 E16.233
G1 X25.104 Y-23.418 E16.40055
G1 X25.431 Y-23.305 E16.41782
G1 X26.685 Y-22.793 E16.48539
G1 X27.136 Y-22.565 E16.5106
G1 X27.41 Y-22.379 E16.52713
G1 X28.439 Y-21.598 E16.59158
G1 X28.816 Y-21.261 E16.6168
G1 X29.032 Y-21.01 E16.63332
G1 X29.831 Y-19.98 E16.69836
G1 X30.109 Y-19.558 E16.72357
G1 X30.25 Y-19.265 E16.73979
G1 X30.756 Y-18.068 E16.80463
G1 X30.916 Y-17.588 E16.82987
G1 X30.989 Y-17.18 E16.85055
G1 X31.18 Y-15.485 E16.93565
G1 X31.2 Y-15.124 E16.95369
G1 X31.167 Y15.741 E18.49355
G1 X31.137 Y16.177 E18.51535
G1 X30.995 Y17.202 E18.56698
G1 X30.886 Y17.696 E18.59222
G1 X30.787 Y17.974 E18.60694
G1 X30.291 Y19.187 E18.67232
G1 X30.063 Y19.639 E18.69758
G1 X29.878 Y19.911 E18.71399
G1 X29.097 Y20.94 E18.77844
G1 X28.76 Y21.317 E18.80367
G1 X28.508 Y21.534 E18.82026
G1 X27.468 Y22.34 E18.8859
G1 X27.045 Y22.617 E18.91113
G1 X26.674 Y22.791 E18.93157
G1 X25.177 Y23.377 E19.01177
G1 X24.938 Y23.46 E19.0244
G1 X19.595 Y25.077 E19.3029
G1 X14.501 Y26.941 E19.57352
G1 X8.774 Y29.424 E19.88494
G1 X8.295 Y29.588 E19.9102
G1 X7.797 Y29.674 E19.93541
G1 X7.501 Y29.688 E19.9502
G1 X-7.492 Y29.69 E20.6982
G1 X-7.996 Y29.65 E20.72342
G1 X-8.487 Y29.531 E20.74863
G1 X-8.773 Y29.423 E20.76388
G1 X-14.118 Y27.088 E21.05488
G1 F3600 E13.05488
G0 F3600 X-15.892 Y21.162
G0 X-15.915 Y21.086
G0 X-21.374 Y2.866
G0 X-21.397 Y2.79
G0 X-21.471 Y2.548
;TYPE:SUPPORT
G1 F3600 E21.05488
G1 F1800 X-21.471 Y2.549 E21.05493
G1 X-21.485 Y2.548 E21.05563
G1 X-22.103 Y2.347 E21.08805
G1 X-22.648 Y2.001 E21.12026
G1 X-22.861 Y1.775 E21.13575
G1 X-23.097 Y1.522 E21.15301
G1 X-23.41 Y0.955 E21.18532
G1 X-23.573 Y0.322 E21.21794
G1 X-23.573 Y-0.317 E21.24982
G1 X-23.408 Y-0.96 E21.28293
G1 X-23.101 Y-1.52 E21.3148
G1 X-22.652 Y-1.998 E21.34751
G1 X-22.352 Y-2.188 E21.36523
G1 X-22.105 Y-2.345 E21.37983
G1 X-21.485 Y-2.546 E21.41235
G1 X-21.045 Y-2.574 E21.43434
G1 X-20.926 Y-2.582 E21.4403
G1 X-20.832 Y-2.588 E21.44499
G1 X-20.199 Y-2.467 E21.47715
G1 X-19.612 Y-2.19 E21.50953
G1 X-19.381 Y-2 E21.52445
G1 X-19.111 Y-1.777 E21.54192
G1 X-18.727 Y-1.248 E21.57453
G1 X-18.488 Y-0.643 E21.60699
G1 X-18.404 Y-0.001 E21.63929
G1 X-18.488 Y0.639 E21.67149
G1 X-18.73 Y1.253 E21.70442
G1 X-19.107 Y1.774 E21.7365
G1 X-19.613 Y2.188 E21.76912
G1 X-20.073 Y2.407 E21.79454
G1 X-20.199 Y2.466 E21.80148
G1 X-20.834 Y2.588 E21.83374
G1 X-21.471 Y2.548 E21.86558
G0 F3600 X-21.328 Y2.397
G1 F1800 X-21.328 Y-2.397 E22.10476
G0 F3600 X-23.413 Y0.00
G1 F1800 X-18.567 Y0.00 E22.34652
G0 F3600 X-18.662 Y0.645
G1 F1800 X-18.662 Y-0.647 E22.41098
G1 F3600 E14.41098
G0 F3600 X-18.25 Y-0.642
G0 X-18.17 Y-0.641
G0 X18.112 Y-0.318
G0 X18.192 Y-0.318
G0 X18.427 Y-0.317
G1 F3600 E22.41098
G1 F1800 X18.592 Y-0.96 E22.4441
G1 X18.899 Y-1.52 E22.47596
G1 X19.348 Y-1.998 E22.50868
G1 X19.648 Y-2.188 E22.5264
G1 X19.895 Y-2.345 E22.541
G1 X20.515 Y-2.546 E22.57352
G1 X20.955 Y-2.574 E22.59551
G1 X21.074 Y-2.582 E22.60146
G1 X21.168 Y-2.588 E22.60616
G1 X21.801 Y-2.467 E22.63831
G1 X22.388 Y-2.19 E22.6707
G1 X22.619 Y-2 E22.68562
G1 X22.889 Y-1.777 E22.70309
G1 X23.273 Y-1.248 E22.7357
G1 X23.512 Y-0.643 E22.76815
G1 X23.596 Y-0.001 E22.80046
G1 X23.512 Y0.639 E22.83266
G1 X23.27 Y1.253 E22.86559
G1 X22.893 Y1.774 E22.89767
G1 X22.387 Y2.188 E22.93029
G1 X21.927 Y2.407 E22.95571
G1 X21.801 Y2.466 E22.96265
G1 X21.166 Y2.588 E22.99491
G1 X20.529 Y2.548 E23.02675
G1 X20.529 Y2.549 E23.0268
G1 X20.515 Y2.548 E23.0275
G1 X19.897 Y2.347 E23.05992
G1 X19.352 Y2.001 E23.09213
G1 X19.139 Y1.775 E23.10762
G1 X18.903 Y1.522 E23.12488
G1 X18.59 Y0.955 E23.15719
G1 X18.427 Y0.322 E23.18981
G1 X18.427 Y-0.317 E23.22169
G0 F3600 X18.587 Y0.00
G1 F1800 X23.432 Y0.00 E23.4634
G0 F3600 X21.328 Y-2.393
G1 F1800 X21.328 Y2.394 E23.70223
G0 F3600 X18.662 Y0.596
G1 F1800 X18.662 Y-0.593 E23.76155
G1 F3600 E15.76155
G0 F3600 X18.279 Y-0.694
G0 X17.036 Y-1.012
G0 X16.528 Y-0.566
;TYPE:WALL-INNER
G1 F3600 E23.76155
G1 F1800 X16.528 Y0.566 E23.81802
G1 X16.809 Y1.658 E23.87428
G1 X17.353 Y2.649 E23.93068
G1 X18.127 Y3.474 E23.98712
G1 X19.08 Y4.079 E24.04343
G1 X20.155 Y4.428 E24.09982
G1 X21.283 Y4.498 E24.1562
G1 X22.394 Y4.287 E24.21262
G1 X23.415 Y3.805 E24.26895
G1 X24.286 Y3.086 E24.3253
G1 X24.95 Y2.171 E24.3817
G1 X25.365 Y1.12 E24.43808
G1 X25.508 Y0.00 E24.49441
G1 X25.365 Y-1.12 E24.55074
G1 X24.95 Y-2.171 E24.60711
G1 X24.286 Y-3.086 E24.66352
G1 X23.415 Y-3.805 E24.71986
G1 X22.394 Y-4.287 E24.77619
G1 X21.283 Y-4.498 E24.83261
G1 X20.155 Y-4.428 E24.88899
G1 X19.08 Y-4.079 E24.94538
G1 X18.127 Y-3.474 E25.0017
G1 X17.353 Y-2.649 E25.05814
G1 X16.809 Y-1.658 E25.11454
G1 X16.528 Y-0.566 E25.17079
G0 F3600 X17.647 Y-2.435
G0 X27 Y-15.431
G1 F1800 X27 Y15.431 E26.7105
G1 X26.855 Y16.534 E26.76601
G1 X26.455 Y17.5 E26.81817
G1 X25.823 Y18.323 E26.86994
G1 X25 Y18.955 E26.92171
G1 X24.034 Y19.355 E26.97387
G1 X22.931 Y19.5 E27.02937
G1 X6.5 Y19.5 E27.84912
G1 X6.5 Y25.5 E28.14846
G1 X1.803 Y25.5 E28.38279
G1 X1.756 Y25.5 E28.38514
G1 X1.329 Y25.5 E28.40644
G1 X1.756 Y25.148 E28.42115
G1 X1.783 Y25.11 E28.42335
G1 X2.112 Y24.659 E28.4512
G1 X2.331 Y24.098 E28.48124
G1 X2.408 Y23.5 E28.51132
G1 X2.331 Y22.902 E28.5414
G1 X2.112 Y22.341 E28.57145
G1 X1.756 Y21.852 E28.60163
G1 X1.29 Y21.468 E28.63175
G1 X0.745 Y21.211 E28.66181
G1 X0.151 Y21.098 E28.69198
G1 X-0.45 Y21.135 E28.72202
G1 X-1.026 Y21.321 E28.75222
G1 X-1.534 Y21.644 E28.78225
G1 X-1.948 Y22.084 E28.81239
G1 X-2.239 Y22.615 E28.8426
G1 X-2.389 Y23.198 E28.87264
G1 X-2.389 Y23.802 E28.90277
G1 X-2.239 Y24.385 E28.9328
G1 X-1.948 Y24.916 E28.96301
G1 X-1.736 Y25.141 E28.97843
G1 X-1.534 Y25.356 E28.99315
G1 X-1.308 Y25.5 E29.00652
G1 X-1.534 Y25.5
G1 X-1.83 Y25.5 E29.01696
G1 X-6.5 Y25.5 E29.24995
G1 X-6.5 Y19.5 E29.54929
G1 X-22.931 Y19.5 E30.36904
G1 X-24.034 Y19.355 E30.42454
G1 X-25 Y18.955 E30.4767
G1 X-25.823 Y18.323 E30.52847
G1 X-26.455 Y17.5 E30.58024
G1 X-26.855 Y16.534 E30.6324
G1 X-27 Y15.431 E30.68791
G1 X-27 Y-15.431 E32.22762
G1 X-26.855 Y-16.534 E32.28312
G1 X-26.455 Y-17.5 E32.33528
G1 X-25.823 Y-18.323 E32.38705
G1 X-25 Y-18.955 E32.43882
G1 X-24.034 Y-19.355 E32.49098
G1 X-22.931 Y-19.5 E32.54648
G1 X-6.5 Y-19.5 E33.36623
G1 X-6.5 Y-25.5 E33.66557
G1 X-1.83 Y-25.5 E33.89856
G1 X-1.534 Y-25.5 E33.91333
G1 X-1.308 Y-25.5 E33.9246
G1 X-1.534 Y-25.356
G1 X-1.736 Y-25.141 E33.93499
G1 X-1.948 Y-24.916 E33.95042
G1 X-2.239 Y-24.385 E33.98063
G1 X-2.389 Y-23.802 E34.01066
G1 X-2.389 Y-23.198 E34.04079
G1 X-2.239 Y-22.615 E34.07083
G1 X-1.948 Y-22.084 E34.10103
G1 X-1.534 Y-21.644 E34.13118
G1 X-1.026 Y-21.321 E34.16121
G1 X-0.45 Y-21.135 E34.19141
G1 X0.151 Y-21.098 E34.22145
G1 X0.745 Y-21.211 E34.25161
G1 X1.29 Y-21.468 E34.28168
G1 X1.756 Y-21.852 E34.3118
G1 X2.112 Y-22.341 E34.34198
G1 X2.331 Y-22.902 E34.37202
G1 X2.408 Y-23.5 E34.4021
G1 X2.331 Y-24.098 E34.43218
G1 X2.112 Y-24.659 E34.46223
G1 X1.783 Y-25.11 E34.49008
G1 X1.756 Y-25.148 E34.49241
G1 X1.329 Y-25.5 E34.52002
G1 X1.756 Y-25.5 E34.52842
G1 X1.803 Y-25.5 E34.53065
G1 X6.5 Y-25.5 E34.76498
G1 X6.5 Y-19.5 E35.06432
G1 X22.931 Y-19.5 E35.88407
G1 X24.034 Y-19.355 E35.93957
G1 X25 Y-18.955 E35.99173
G1 X25.823 Y-18.323 E36.0435
G1 X26.455 Y-17.5 E36.09527
G1 X26.855 Y-16.534 E36.14743
G1 X27 Y-15.431 E36.20293
G0 F3600 X-16.635 Y-1.12
G1 F1800 X-17.05 Y-2.171 E36.25931
G1 X-17.714 Y-3.086 E36.31571
G1 X-18.585 Y-3.805 E36.37206
G1 X-19.606 Y-4.287 E36.42839
G1 X-20.717 Y-4.498 E36.48481
G1 X-21.845 Y-4.428 E36.54119
G1 X-22.92 Y-4.079 E36.59758
G1 X-23.873 Y-3.474 E36.6539
G1 X-24.647 Y-2.649 E36.71033
G1 X-25.191 Y-1.658 E36.76673
G1 X-25.472 Y-0.566 E36.82299
G1 X-25.472 Y0.566 E36.87946
G1 X-25.191 Y1.658 E36.93572
G1 X-24.647 Y2.649 E36.99212
G1 X-23.873 Y3.474 E37.04856
G1 X-22.92 Y4.079 E37.10487
G1 X-21.845 Y4.428 E37.16126
G1 X-20.717 Y4.498 E37.21765
G1 X-19.606 Y4.287 E37.27407
G1 X-18.585 Y3.805 E37.33039
G1 X-17.714 Y3.086 E37.38674
G1 X-17.05 Y2.171 E37.44314
G1 X-16.635 Y1.12 E37.49952
G1 X-16.492 Y0.00 E37.55585
G1 X-16.635 Y-1.12 E37.61218
G0 F3600 X-17.025 Y-1.02
G1 F1800 X-17.403 Y-1.977 E37.66351
G1 X-18.008 Y-2.81 E37.71488
G1 X-18.801 Y-3.465 E37.76619
G1 X-19.731 Y-3.904 E37.8175
G1 X-20.742 Y-4.096 E37.86884
G1 X-21.77 Y-4.032 E37.92023
G1 X-22.748 Y-3.714 E37.97153
G1 X-23.616 Y-3.163 E38.02283
G1 X-24.321 Y-2.412 E38.07422
G1 X-24.816 Y-1.51 E38.12555
G1 X-25.072 Y-0.515 E38.1768
G1 X-25.072 Y0.515 E38.22819
G1 X-24.816 Y1.51 E38.27945
G1 X-24.321 Y2.412 E38.33078
G1 X-23.616 Y3.163 E38.38217
G1 X-22.748 Y3.714 E38.43346
G1 X-21.77 Y4.032 E38.48477
G1 X-20.742 Y4.096 E38.53616
G1 X-19.731 Y3.904 E38.5875
G1 X-18.801 Y3.465 E38.63881
G1 X-18.008 Y2.81 E38.69012
G1 X-17.403 Y1.977 E38.74148
G1 X-17.025 Y1.02 E38.79282
G1 X-16.895 Y0.00 E38.84412
G1 X-17.025 Y-1.02 E38.89542
G0 F3600 X-16.929 Y-1.044
G0 X-17.368 Y-1.996
G0 X-27.301 Y-15.454
G0 X-27.4 Y-15.46
G1 F1800 X-27.245 Y-16.638 E38.95469
G1 X-26.806 Y-17.698 E39.01193
G1 X-26.108 Y-18.608 E39.06915
G1 X-25.198 Y-19.306 E39.12637
G1 X-24.138 Y-19.745 E39.18361
G1 X-22.96 Y-19.9 E39.24288
G1 X-6.9 Y-19.9 E40.04412
G1 X-6.9 Y-25.9 E40.34346
G1 X0.126 Y-25.9 E40.69399
G1 X6.9 Y-25.9 E41.03195
G1 X6.9 Y-19.9 E41.33129
G1 X22.96 Y-19.9 E42.13252
G1 X24.138 Y-19.745 E42.1918
G1 X25.198 Y-19.306 E42.24904
G1 X26.108 Y-18.608 E42.30626
G1 X26.806 Y-17.698 E42.36348
G1 X27.245 Y-16.638 E42.42072
G1 X27.4 Y-15.46 E42.47999
G1 X27.4 Y15.46 E44.0226
G1 X27.245 Y16.638 E44.08188
G1 X26.806 Y17.698 E44.13911
G1 X26.108 Y18.608 E44.19633
G1 X25.198 Y19.306 E44.25355
G1 X24.138 Y19.745 E44.31079
G1 X22.96 Y19.9 E44.37007
G1 X6.9 Y19.9 E45.1713
G1 X6.9 Y25.9 E45.47064
G1 X0.126 Y25.9 E45.8086
G1 X-6.9 Y25.9 E46.15913
G1 X-6.9 Y19.9 E46.45847
G1 X-22.96 Y19.9 E47.25971
G1 X-24.138 Y19.745 E47.31898
G1 X-25.198 Y19.306 E47.37622
G1 X-26.108 Y18.608 E47.43344
G1 X-26.806 Y17.698 E47.49066
G1 X-27.245 Y16.638 E47.5479
G1 X-27.4 Y15.46 E47.60718
G1 X-27.4 Y-15.46 E49.14978
G0 F3600 X-27.301 Y-15.454
G0 X-6.872 Y-19.872
G0 X-1.957 Y-22.727
G0 X-1.864 Y-22.763
G1 F1800 X-1.622 Y-22.321 E49.17492
G1 X-1.277 Y-21.955 E49.20001
G1 X-0.854 Y-21.686 E49.22502
G1 X-0.375 Y-21.531 E49.25014
G1 X0.126 Y-21.5 E49.27518
G1 X0.62 Y-21.594 E49.30027
G1 X1.074 Y-21.808 E49.32531
G1 X1.462 Y-22.128 E49.3504
G1 X1.758 Y-22.535 E49.37551
G1 X1.941 Y-23.002 E49.40053
G1 X2.005 Y-23.5 E49.42558
G1 X1.941 Y-23.998 E49.45063
G1 X1.758 Y-24.465 E49.47566
G1 X1.462 Y-24.872 E49.50077
G1 X1.074 Y-25.192 E49.52586
G1 X0.62 Y-25.406 E49.5509
G1 X0.126 Y-25.5 E49.57599
G1 X-0.375 Y-25.469 E49.60103
G1 X-0.854 Y-25.314 E49.62615
G1 X-1.277 Y-25.045 E49.65115
G1 X-1.622 Y-24.679 E49.67625
G1 X-1.864 Y-24.237 E49.70139
G1 X-1.989 Y-23.751 E49.72642
G1 X-1.989 Y-23.249 E49.75147
G1 X-1.864 Y-22.763 E49.7765
G0 F3600 X-1.957 Y-22.727
G0 X-1.302 Y-21.925
G0 X18.321 Y-3.24
G0 X18.384 Y-3.163
G1 F1800 X17.679 Y-2.412 E49.82789
G1 X17.184 Y-1.51 E49.87923
G1 X16.928 Y-0.515 E49.93048
G1 X16.928 Y0.515 E49.98187
G1 X17.184 Y1.51 E50.03313
G1 X17.679 Y2.412 E50.08446
G1 X18.384 Y3.163 E50.13585
G1 X19.252 Y3.714 E50.18714
G1 X20.23 Y4.032 E50.23845
G1 X21.258 Y4.096 E50.28984
G1 X22.269 Y3.904 E50.34118
G1 X23.199 Y3.465 E50.39248
