;FLAVOR:RepRap
;TIME:5343
;Filament used: 5.97489m
;Layer height: 0.2
;Generated with Cura_SteamEngine 0.0.0-master
M104 S200
M109 S200
;Sliced at: Sun 01-04-2018 06:40:35 
 ;Basic settings: Layer height: 0.2 Walls: 1.2 Fill: {fill_density} 
 ;Print time: 01:29:04 
 ;Filament used: [5.97]m [17.820410546875]g 
 ;Filament cost: [0] 
 ;M190 S60 ;Uncomment to add your own bed temperature line 
 ;M109 S200 ;Uncomment to add your own temperature line 
 G21        ;metric values 
 G90        ;absolute positioning 
 M82        ;set extruder to absolute mode 
 M107       ;start with the fan off 
 G28 X0 Y0  ;move X/Y to min endstops 
 G28 Z0     ;move Z to min endstops 
 G1 Z15.0 F3000 ;move the platform down 15mm 
 G92 E0                  ;zero the extruded length 
 G1 F3000 E3              ;extrude 3mm of feed stock 
 G92 E0                  ;zero the extruded length again 
 G1 F3000 
 ;Put printing message on LCD screen 
 M117 Printing...
;LAYER_COUNT:110
;LAYER:0
M107
G0 F3600 X-15.051 Y-28.299 Z0.299
;TYPE:SKIRT
G1 F1800 X-14.943 Y-28.717 E0.02154
G1 X-14.669 Y-29.457 E0.06091
G1 X-14.321 Y-30.166 E0.10031
G1 X-13.903 Y-30.837 E0.13975
G1 X-13.42 Y-31.461 E0.17912
G1 X-13.015 Y-31.898 E0.20884
G1 X-12.898 Y-32.015 E0.2171
G1 X-12.312 Y-32.545 E0.25652
G1 X-11.676 Y-33.012 E0.29588
G1 X-10.996 Y-33.413 E0.33527
G1 X-10.278 Y-33.743 E0.37469
G1 X-9.531 Y-33.998 E0.41407
G1 X-8.762 Y-34.177 E0.45346
G1 X-7.978 Y-34.277 E0.49289
G1 X-7.383 Y-34.3 E0.5226
G1 X7.383 Y-34.3 E1.25928
G1 X8.172 Y-34.26 E1.29869
G1 X8.952 Y-34.141 E1.33806
G1 X9.717 Y-33.943 E1.37748
G1 X10.457 Y-33.669 E1.41685
G1 X11.166 Y-33.321 E1.45625
G1 X11.837 Y-32.903 E1.49569
G1 X12.461 Y-32.42 E1.53506
G1 X12.898 Y-32.015 E1.56479
G1 X13.015 Y-31.898 E1.57304
G1 X13.545 Y-31.312 E1.61246
G1 X14.012 Y-30.676 E1.65183
G1 X14.413 Y-29.996 E1.69121
G1 X14.743 Y-29.278 E1.73064
G1 X14.998 Y-28.531 E1.77001
G1 X15.052 Y-28.3 E1.78185
G1 X23.009 Y-28.299 E2.17883
G1 X24.018 Y-28.233 E2.22927
G1 X25.289 Y-28.067 E2.29322
G1 X26.066 Y-27.926 E2.33262
G1 X26.825 Y-27.706 E2.37205
G1 X27.247 Y-27.546 E2.39456
G1 X28.455 Y-27.049 E2.45973
G1 X29.169 Y-26.712 E2.49912
G1 X29.845 Y-26.305 E2.53849
G1 X30.219 Y-26.036 E2.56147
G1 X31.258 Y-25.243 E2.62668
G1 X31.861 Y-24.733 E2.66608
G1 X32.409 Y-24.165 E2.70546
G1 X32.704 Y-23.805 E2.72868
G1 X33.501 Y-22.771 E2.79381
G1 X33.951 Y-22.122 E2.83321
G1 X34.332 Y-21.431 E2.87258
G1 X34.52 Y-21.016 E2.89531
G1 X35.023 Y-19.812 E2.96041
G1 X35.29 Y-19.069 E2.9998
G1 X35.481 Y-18.302 E3.03923
G1 X35.557 Y-17.838 E3.06269
G1 X35.73 Y-16.543 E3.12787
G1 X35.799 Y-15.51 E3.17952
G1 X35.8 Y15.496 E4.72642
G1 X35.735 Y16.503 E4.77676
G1 X35.568 Y17.786 E4.84131
G1 X35.426 Y18.563 E4.88072
G1 X35.207 Y19.321 E4.92008
G1 X35.046 Y19.747 E4.9428
G1 X34.549 Y20.955 E5.00797
G1 X34.212 Y21.669 E5.04736
G1 X33.805 Y22.345 E5.08673
G1 X33.538 Y22.718 E5.10961
G1 X32.747 Y23.755 E5.17468
G1 X32.237 Y24.357 E5.21404
G1 X31.668 Y24.906 E5.25349
G1 X31.309 Y25.2 E5.27664
G1 X30.273 Y25.999 E5.34191
G1 X29.624 Y26.449 E5.38131
G1 X28.932 Y26.832 E5.42077
G1 X28.517 Y27.02 E5.4435
G1 X27.311 Y27.524 E5.50871
G1 X26.568 Y27.791 E5.5481
G1 X25.801 Y27.982 E5.58754
G1 X25.33 Y28.059 E5.61135
G1 X24.035 Y28.231 E5.67652
G1 X23.009 Y28.299 E5.72782
G1 X15.051 Y28.3 E6.12485
G1 X14.943 Y28.717 E6.14634
G1 X14.669 Y29.457 E6.18571
G1 X14.321 Y30.166 E6.22511
G1 X13.903 Y30.837 E6.26455
G1 X13.42 Y31.461 E6.30392
G1 X13.015 Y31.898 E6.33364
G1 X12.898 Y32.015 E6.3419
G1 X12.312 Y32.545 E6.38132
G1 X11.676 Y33.012 E6.42068
G1 X10.996 Y33.413 E6.46007
G1 X10.278 Y33.743 E6.49949
G1 X9.531 Y33.998 E6.53887
G1 X8.762 Y34.177 E6.57826
G1 X7.978 Y34.277 E6.61769
G1 X7.383 Y34.3 E6.6474
G1 X-7.383 Y34.3 E7.38408
G1 X-8.172 Y34.26 E7.42349
G1 X-8.952 Y34.141 E7.46286
G1 X-9.717 Y33.943 E7.50228
G1 X-10.457 Y33.669 E7.54165
G1 X-11.166 Y33.321 E7.58105
G1 X-11.837 Y32.903 E7.62049
G1 X-12.461 Y32.42 E7.65986
G1 X-12.898 Y32.015 E7.68959
G1 X-13.015 Y31.898 E7.69784
G1 X-13.545 Y31.312 E7.73726
G1 X-14.012 Y30.676 E7.77663
G1 X-14.413 Y29.996 E7.81601
G1 X-14.743 Y29.278 E7.85543
G1 X-14.998 Y28.531 E7.89481
G1 X-15.052 Y28.3 E7.90665
G1 X-23.009 Y28.299 E8.30363
G1 X-24.035 Y28.231 E8.35492
G1 X-25.33 Y28.059 E8.4201
G1 X-26.107 Y27.916 E8.45952
G1 X-26.865 Y27.694 E8.49892
G1 X-27.311 Y27.524 E8.52273
G1 X-28.517 Y27.02 E8.58794
G1 X-29.229 Y26.679 E8.62733
G1 X-29.903 Y26.268 E8.66671
G1 X-30.273 Y25.999 E8.68954
G1 X-31.309 Y25.2 E8.75481
G1 X-31.909 Y24.687 E8.79419
G1 X-32.454 Y24.116 E8.83357
G1 X-32.747 Y23.755 E8.85677
G1 X-33.538 Y22.718 E8.92184
G1 X-33.984 Y22.066 E8.96125
G1 X-34.363 Y21.373 E9.00066
G1 X-34.549 Y20.955 E9.02348
G1 X-35.046 Y19.747 E9.08865
G1 X-35.309 Y19.002 E9.12807
G1 X-35.496 Y18.235 E9.16745
G1 X-35.568 Y17.787 E9.19009
G1 X-35.735 Y16.505 E9.25459
G1 X-35.8 Y15.497 E9.30498
G1 X-35.799 Y-15.508 E10.85183
G1 X-35.731 Y-16.536 E10.90323
G1 X-35.559 Y-17.83 E10.96835
G1 X-35.415 Y-18.606 E11.00773
G1 X-35.194 Y-19.364 E11.04712
G1 X-35.025 Y-19.808 E11.07082
G1 X-34.521 Y-21.015 E11.13608
G1 X-34.18 Y-21.727 E11.17547
G1 X-33.769 Y-22.401 E11.21485
G1 X-33.502 Y-22.769 E11.23753
G1 X-32.704 Y-23.805 E11.30277
G1 X-32.191 Y-24.405 E11.34216
G1 X-31.62 Y-24.951 E11.38157
G1 X-31.245 Y-25.255 E11.40566
G1 X-30.199 Y-26.05 E11.4712
G1 X-29.547 Y-26.495 E11.51059
G1 X-28.853 Y-26.873 E11.55001
G1 X-28.445 Y-27.054 E11.57228
G1 X-27.246 Y-27.547 E11.63696
G1 X-26.502 Y-27.81 E11.67633
G1 X-25.734 Y-27.996 E11.71575
G1 X-25.287 Y-28.068 E11.73834
G1 X-24.02 Y-28.233 E11.80209
G1 X-23.014 Y-28.298 E11.85238
G1 X-15.051 Y-28.299 E12.24966
G0 F3600 X-14.743 Y-27.899
G1 F1800 X-14.741 Y-27.911 E12.25026
G1 X-14.543 Y-28.654 E12.28862
G1 X-14.269 Y-29.373 E12.32701
G1 X-13.922 Y-30.059 E12.36537
G1 X-13.506 Y-30.706 E12.40374
G1 X-13.025 Y-31.306 E12.44211
G1 X-12.733 Y-31.616 E12.46335
G1 X-12.616 Y-31.733 E12.47161
G1 X-12.044 Y-32.247 E12.50997
G1 X-11.422 Y-32.7 E12.54836
G1 X-10.757 Y-33.086 E12.58673
G1 X-10.055 Y-33.401 E12.62511
G1 X-9.324 Y-33.641 E12.6635
G1 X-8.573 Y-33.804 E12.70184
G1 X-7.808 Y-33.888 E12.74023
G1 X-7.383 Y-33.9 E12.76144
G1 X7.383 Y-33.9 E13.49812
G1 X8.151 Y-33.86 E13.53649
G1 X8.911 Y-33.741 E13.57487
G1 X9.654 Y-33.543 E13.61323
G1 X10.373 Y-33.269 E13.65162
G1 X11.059 Y-32.922 E13.68997
G1 X11.706 Y-32.506 E13.72835
G1 X12.306 Y-32.025 E13.76671
G1 X12.616 Y-31.733 E13.78796
G1 X12.733 Y-31.616 E13.79622
G1 X13.247 Y-31.044 E13.83458
G1 X13.7 Y-30.422 E13.87297
G1 X14.086 Y-29.757 E13.91133
G1 X14.401 Y-29.055 E13.94972
G1 X14.641 Y-28.324 E13.9881
G1 X14.733 Y-27.9 E14.00975
G1 X23.008 Y-27.899 E14.42259
G1 X23.966 Y-27.837 E14.47049
G1 X25.237 Y-27.671 E14.53444
G1 X25.994 Y-27.532 E14.57283
G1 X26.732 Y-27.315 E14.61121
G1 X27.095 Y-27.176 E14.6306
G1 X28.303 Y-26.679 E14.69577
G1 X28.998 Y-26.35 E14.73413
G1 X29.655 Y-25.951 E14.77248
G1 X29.977 Y-25.718 E14.79231
G1 X31.016 Y-24.925 E14.85752
G1 X31.602 Y-24.428 E14.89586
G1 X32.134 Y-23.872 E14.93425
G1 X32.387 Y-23.561 E14.95425
G1 X33.184 Y-22.527 E15.01938
G1 X33.621 Y-21.894 E15.05776
G1 X33.99 Y-21.219 E15.09614
G1 X34.151 Y-20.862 E15.11567
G1 X34.654 Y-19.658 E15.18077
G1 X34.913 Y-18.933 E15.21918
G1 X35.096 Y-18.186 E15.25755
G1 X35.161 Y-17.785 E15.27782
G1 X35.334 Y-16.49 E15.343
G1 X35.399 Y-15.51 E15.392
G1 X35.4 Y15.496 E16.9389
G1 X35.338 Y16.451 E16.98664
G1 X35.171 Y17.734 E17.05119
G1 X35.032 Y18.491 E17.08959
G1 X34.816 Y19.229 E17.12795
G1 X34.676 Y19.595 E17.1475
G1 X34.179 Y20.803 E17.21267
G1 X33.85 Y21.498 E17.25103
G1 X33.451 Y22.155 E17.28938
G1 X33.22 Y22.475 E17.30907
G1 X32.429 Y23.512 E17.37414
G1 X31.931 Y24.098 E17.41251
G1 X31.375 Y24.63 E17.4509
G1 X31.064 Y24.884 E17.47093
G1 X30.028 Y25.683 E17.53621
G1 X29.396 Y26.12 E17.57454
G1 X28.721 Y26.49 E17.61294
G1 X28.362 Y26.651 E17.63257
G1 X27.156 Y27.155 E17.69778
G1 X26.432 Y27.414 E17.73615
G1 X25.685 Y27.597 E17.77452
G1 X25.277 Y27.663 E17.79514
G1 X23.982 Y27.835 E17.86031
G1 X23.008 Y27.899 E17.90901
G1 X14.743 Y27.9 E18.32135
G1 X14.741 Y27.911 E18.32191
G1 X14.543 Y28.654 E18.36027
G1 X14.269 Y29.373 E18.39866
G1 X13.922 Y30.059 E18.43701
G1 X13.506 Y30.706 E18.47539
G1 X13.025 Y31.306 E18.51375
G1 X12.733 Y31.616 E18.535
G1 X12.616 Y31.733 E18.54325
G1 X12.044 Y32.247 E18.58162
G1 X11.422 Y32.7 E18.62001
G1 X10.757 Y33.086 E18.65837
G1 X10.055 Y33.401 E18.69676
G1 X9.324 Y33.641 E18.73514
G1 X8.573 Y33.804 E18.77348
G1 X7.808 Y33.888 E18.81188
G1 X7.383 Y33.9 E18.83309
G1 X-7.383 Y33.9 E19.56977
G1 X-8.151 Y33.86 E19.60814
G1 X-8.911 Y33.741 E19.64652
G1 X-9.654 Y33.543 E19.68488
G1 X-10.373 Y33.269 E19.72327
G1 X-11.059 Y32.922 E19.76162
G1 X-11.706 Y32.506 E19.79999
G1 X-12.306 Y32.025 E19.83836
G1 X-12.616 Y31.733 E19.85961
G1 X-12.733 Y31.616 E19.86786
G1 X-13.247 Y31.044 E19.90623
G1 X-13.7 Y30.422 E19.94462
G1 X-14.086 Y29.757 E19.98298
G1 X-14.401 Y29.055 E20.02137
G1 X-14.641 Y28.324 E20.05975
G1 X-14.733 Y27.9 E20.0814
G1 X-23.008 Y27.899 E20.49424
G1 X-23.982 Y27.835 E20.54294
G1 X-25.277 Y27.663 E20.60811
G1 X-26.033 Y27.522 E20.64648
G1 X-26.771 Y27.303 E20.68488
G1 X-27.156 Y27.155 E20.70546
G1 X-28.362 Y26.651 E20.77067
G1 X-29.056 Y26.318 E20.80908
G1 X-29.711 Y25.914 E20.84747
G1 X-30.028 Y25.683 E20.86704
G1 X-31.064 Y24.884 E20.93231
G1 X-31.648 Y24.383 E20.9707
G1 X-32.177 Y23.824 E21.0091
G1 X-32.429 Y23.512 E21.0291
G1 X-33.22 Y22.475 E21.09417
G1 X-33.654 Y21.84 E21.13255
G1 X-34.02 Y21.163 E21.17094
G1 X-34.179 Y20.803 E21.19058
G1 X-34.676 Y19.595 E21.25574
G1 X-34.932 Y18.869 E21.29415
G1 X-35.11 Y18.121 E21.33251
G1 X-35.171 Y17.735 E21.35201
G1 X-35.338 Y16.453 E21.41651
G1 X-35.4 Y15.497 E21.4643
G1 X-35.399 Y-15.508 E23.01115
G1 X-35.334 Y-16.483 E23.0599
G1 X-35.162 Y-17.777 E23.12502
G1 X-35.022 Y-18.533 E23.16338
G1 X-34.803 Y-19.271 E23.20179
G1 X-34.656 Y-19.653 E23.22221
G1 X-34.152 Y-20.86 E23.28747
G1 X-33.819 Y-21.554 E23.32587
G1 X-33.416 Y-22.209 E23.36424
G1 X-33.185 Y-22.525 E23.38377
G1 X-32.387 Y-23.561 E23.44901
G1 X-31.887 Y-24.145 E23.48736
G1 X-31.329 Y-24.674 E23.52572
G1 X-31.003 Y-24.936 E23.54659
G1 X-29.957 Y-25.731 E23.61214
G1 X-29.321 Y-26.164 E23.65052
G1 X-28.293 Y-26.684 E23.708
G1 X-27.094 Y-27.177 E23.77268
G1 X-26.368 Y-27.432 E23.81106
G1 X-25.62 Y-27.611 E23.84944
G1 X-25.236 Y-27.671 E23.86883
G1 X-23.969 Y-27.836 E23.93257
G1 X-23.014 Y-27.898 E23.98032
G1 X-14.743 Y-27.899 E24.39296
G0 F3600 X-14.4 Y-27.499
G1 F1800 X-14.341 Y-27.868 E24.4116
G1 X-14.143 Y-28.59 E24.44895
G1 X-13.87 Y-29.286 E24.48625
G1 X-13.523 Y-29.949 E24.52359
G1 X-13.108 Y-30.572 E24.56093
G1 X-12.45 Y-31.333 E24.61112
G1 X-12.333 Y-31.45 E24.61938
G1 X-11.776 Y-31.95 E24.65672
G1 X-11.17 Y-32.387 E24.69399
G1 X-10.52 Y-32.758 E24.73133
G1 X-9.834 Y-33.057 E24.76867
G1 X-9.12 Y-33.281 E24.806
G1 X-8.387 Y-33.428 E24.8433
G1 X-7.383 Y-33.5 E24.89352
G1 X7.383 Y-33.5 E25.6302
G1 X8.13 Y-33.46 E25.66752
G1 X8.868 Y-33.341 E25.70481
G1 X9.59 Y-33.143 E25.74216
G1 X10.286 Y-32.87 E25.77946
G1 X10.949 Y-32.523 E25.8168
G1 X11.572 Y-32.108 E25.85414
G1 X12.333 Y-31.45 E25.90433
G1 X12.45 Y-31.333 E25.91259
G1 X12.95 Y-30.776 E25.94993
G1 X13.387 Y-30.17 E25.9872
G1 X13.758 Y-29.52 E26.02454
G1 X14.057 Y-28.834 E26.06188
G1 X14.281 Y-28.12 E26.09921
G1 X14.405 Y-27.5 E26.13076
G1 X23.008 Y-27.499 E26.55996
G1 X23.915 Y-27.44 E26.60531
G1 X25.186 Y-27.274 E26.66926
G1 X25.921 Y-27.138 E26.70655
G1 X26.942 Y-26.807 E26.7601
G1 X28.15 Y-26.31 E26.82527
G1 X28.826 Y-25.988 E26.86262
G1 X29.734 Y-25.4 E26.91659
G1 X30.773 Y-24.607 E26.9818
G1 X31.343 Y-24.122 E27.01914
G1 X32.07 Y-23.316 E27.07329
G1 X32.867 Y-22.282 E27.13842
G1 X33.292 Y-21.666 E27.17576
G1 X33.782 Y-20.707 E27.22949
G1 X34.285 Y-19.503 E27.29459
G1 X34.536 Y-18.799 E27.33188
G1 X34.764 Y-17.732 E27.38631
G1 X34.937 Y-16.437 E27.45149
G1 X34.999 Y-15.51 E27.49784
G1 X35 Y15.496 E29.04474
G1 X34.941 Y16.4 E29.08994
G1 X34.774 Y17.683 E29.15449
G1 X34.638 Y18.418 E29.19178
G1 X34.307 Y19.442 E29.24547
G1 X33.81 Y20.65 E29.31064
G1 X33.488 Y21.326 E29.34799
G1 X32.902 Y22.232 E29.40182
G1 X32.111 Y23.269 E29.46689
G1 X31.626 Y23.839 E29.50423
G1 X30.82 Y24.567 E29.55842
G1 X29.784 Y25.366 E29.62369
G1 X29.168 Y25.791 E29.66103
G1 X28.208 Y26.282 E29.71482
G1 X27.002 Y26.786 E29.78003
G1 X26.298 Y27.037 E29.81732
G1 X25.225 Y27.266 E29.87206
G1 X23.93 Y27.438 E29.93723
G1 X23.008 Y27.499 E29.98333
G1 X14.4 Y27.5 E30.41279
G1 X14.341 Y27.868 E30.43138
G1 X14.143 Y28.59 E30.46873
G1 X13.87 Y29.286 E30.50603
G1 X13.523 Y29.949 E30.54337
G1 X13.108 Y30.572 E30.58071
G1 X12.45 Y31.333 E30.6309
G1 X12.333 Y31.45 E30.63916
G1 X11.776 Y31.95 E30.6765
G1 X11.17 Y32.387 E30.71377
G1 X10.52 Y32.758 E30.75111
G1 X9.834 Y33.057 E30.78845
G1 X9.12 Y33.281 E30.82578
G1 X8.387 Y33.428 E30.86308
G1 X7.383 Y33.5 E30.9133
G1 X-7.383 Y33.5 E31.64998
G1 X-8.13 Y33.46 E31.6873
G1 X-8.868 Y33.341 E31.72459
G1 X-9.59 Y33.143 E31.76194
G1 X-10.286 Y32.87 E31.79924
G1 X-10.949 Y32.523 E31.83658
G1 X-11.572 Y32.108 E31.87392
G1 X-12.333 Y31.45 E31.92411
G1 X-12.45 Y31.333 E31.93237
G1 X-12.95 Y30.776 E31.96971
G1 X-13.387 Y30.17 E32.00698
G1 X-13.758 Y29.52 E32.04432
G1 X-14.057 Y28.834 E32.08166
G1 X-14.281 Y28.12 E32.11899
G1 X-14.405 Y27.5 E32.15054
G1 X-23.008 Y27.499 E32.57974
G1 X-23.93 Y27.438 E32.62584
G1 X-25.225 Y27.266 E32.69102
G1 X-25.96 Y27.128 E32.72833
G1 X-27.002 Y26.786 E32.78304
G1 X-28.208 Y26.282 E32.84825
G1 X-28.882 Y25.957 E32.88558
G1 X-29.784 Y25.366 E32.93938
G1 X-30.82 Y24.567 E33.00465
G1 X-31.387 Y24.079 E33.04198
G1 X-32.111 Y23.269 E33.09618
G1 X-32.902 Y22.232 E33.16125
G1 X-33.323 Y21.614 E33.19855
G1 X-33.81 Y20.65 E33.25244
G1 X-34.307 Y19.442 E33.3176
G1 X-34.554 Y18.736 E33.35492
G1 X-34.774 Y17.683 E33.40859
G1 X-34.941 Y16.401 E33.47309
G1 X-35 Y15.497 E33.51829
G1 X-34.999 Y-15.508 E35.06513
G1 X-34.938 Y-16.43 E35.11123
G1 X-34.766 Y-17.724 E35.17636
G1 X-34.628 Y-18.46 E35.21372
G1 X-34.286 Y-19.499 E35.26829
G1 X-33.782 Y-20.706 E35.33354
G1 X-33.458 Y-21.38 E35.37085
G1 X-32.869 Y-22.281 E35.42456
G1 X-32.071 Y-23.317 E35.4898
G1 X-31.583 Y-23.884 E35.52712
G1 X-30.761 Y-24.618 E35.5821
G1 X-29.715 Y-25.413 E35.64765
G1 X-29.096 Y-25.833 E35.68497
G1 X-28.141 Y-26.314 E35.73831
G1 X-26.942 Y-26.807 E35.80299
G1 X-26.236 Y-27.054 E35.84031
G1 X-25.184 Y-27.274 E35.89393
G1 X-23.917 Y-27.439 E35.95767
G1 X-23.014 Y-27.498 E36.00282
G1 X-14.4 Y-27.499 E36.43257
G0 F3600 X-14.06 Y-27.099
G1 F1800 X-14.06 Y-27.108 E36.43302
G1 X-13.941 Y-27.825 E36.46928
G1 X-13.743 Y-28.524 E36.50553
G1 X-13.47 Y-29.197 E36.54176
G1 X-13.125 Y-29.836 E36.57799
G1 X-12.711 Y-30.433 E36.61424
G1 X-12.167 Y-31.05 E36.65528
G1 X-12.05 Y-31.167 E36.66353
G1 X-11.509 Y-31.651 E36.69975
G1 X-10.918 Y-32.074 E36.73601
G1 X-10.284 Y-32.428 E36.77223
G1 X-9.615 Y-32.711 E36.80847
G1 X-8.919 Y-32.919 E36.84471
G1 X-8.204 Y-33.049 E36.88097
G1 X-7.383 Y-33.1 E36.92201
G1 X7.383 Y-33.1 E37.65869
G1 X8.108 Y-33.06 E37.69491
G1 X8.825 Y-32.941 E37.73117
G1 X9.524 Y-32.743 E37.76742
G1 X10.197 Y-32.47 E37.80365
G1 X10.836 Y-32.125 E37.83988
G1 X11.433 Y-31.711 E37.87613
G1 X12.05 Y-31.167 E37.91716
G1 X12.167 Y-31.05 E37.92542
G1 X12.651 Y-30.509 E37.96164
G1 X13.074 Y-29.918 E37.99789
G1 X13.428 Y-29.284 E38.03412
G1 X13.711 Y-28.615 E38.07036
G1 X13.919 Y-27.919 E38.1066
G1 X14.049 Y-27.204 E38.14286
G1 X14.055 Y-27.1 E38.14806
G1 X23.008 Y-27.099 E38.59472
G1 X23.863 Y-27.043 E38.63747
G1 X25.134 Y-26.877 E38.70142
G1 X25.848 Y-26.744 E38.73765
G1 X26.79 Y-26.437 E38.78708
G1 X27.998 Y-25.94 E38.85225
G1 X28.654 Y-25.627 E38.88851
G1 X29.491 Y-25.082 E38.93834
G1 X30.53 Y-24.289 E39.00355
G1 X31.083 Y-23.818 E39.03979
G1 X31.753 Y-23.072 E39.08982
G1 X32.55 Y-22.038 E39.15495
G1 X32.961 Y-21.439 E39.19119
G1 X33.413 Y-20.553 E39.24082
G1 X33.916 Y-19.349 E39.30592
G1 X34.159 Y-18.665 E39.34213
G1 X34.368 Y-17.679 E39.39241
G1 X34.541 Y-16.384 E39.4576
G1 X34.599 Y-15.51 E39.5013
G1 X34.6 Y15.496 E41.04819
G1 X34.545 Y16.348 E41.09079
